X:19
T:Star of Munster, The
R:reel
H:Also in Edor, #626. Also as jig#282
D:Chieftains Live.
Z:id:hn-reel-11
M:C|
K:Ador
c2Ac BAGB|AGEF GEDG|EAAG ABcd|e2af gfed|
c2Ac BAGB|AGEF GEDG|EAAG ABcd|ecdB cA~A2:|
|:eaag ageg|a2bg agef|~g3a gdBd|gaba gedg|
eaag ageg|a2bg agef|g2~g2 a2ga|1 bgaf gedg:|2 ~b3a gedB||
